logos/terser.svg

<?xml version="1.0" encoding="UTF-8"?>
<svg width="512px" height="157px" viewBox="0 0 512 157" version="1.1" xmlns="http://www.w3.org/2000/svg" xmlns:xlink="http://www.w3.org/1999/xlink" preserveAspectRatio="xMidYMid">
    <g>
        <rect fill="#FF6B00" x="7.96444444" y="0" width="26.7377778" height="58.0266667"></rect>
        <path d="M7.96444444,84.7644444 L7.96444444,128.568889 C7.96444444,148.48 23.3244444,155.875556 34.7022222,155.875556 L47.7866667,155.875556 L47.7866667,128.568889 L34.7022222,128.568889 L34.7022222,84.7644444 L7.96444444,84.7644444 Z" fill="#FF6B00"></path>
        <polygon fill="#05CE7C" points="0 58.0266667 10.3621788 58.0266667 10.3621788 84.7644444 0 84.7644444"></polygon>
        <polygon fill="#05CE7C" points="33.1174392 58.0266667 47.7866667 58.0266667 47.7866667 84.7644444 33.1174392 84.7644444"></polygon>
        <rect fill="#055600" x="7.96444444" y="58.0266667" width="26.7377778" height="26.7377778"></rect>
        <path d="M133.12,111.502222 L160.426667,100.124444 C156.728889,91.3635556 153.031111,83.0577778 149.617778,78.5066667 L122.88,89.8844444 L133.12,111.502222 Z" fill="#DA1800"></path>
        <path d="M98.9866667,125.155556 L89.3155556,103.537778 L61.44,114.915556 C63.5448889,123.619556 67.1288889,131.527111 71.68,137.102222 L98.9866667,125.155556 Z" fill="#DA1800"></path>
        <path d="M122.88,89.8844444 L149.617778,78.5066667 C120.604444,37.5466667 54.6133333,61.44 61.44,114.915556 L89.3155556,103.537778 C91.9324444,86.0728889 110.364444,79.3031111 122.88,89.8844444 Z" fill="#FF6B00"></path>
        <path d="M89.3155556,103.537778 C88.9460022,107.997055 89.3553229,111.741476 90.5250351,114.946624 C92.0562978,119.142462 94.8906631,122.414136 98.9866667,125.155556 L133.12,111.502222 C131.356444,103.082667 128.625778,95.8577778 122.88,89.8844444 L89.3155556,103.537778 Z" fill="#DA3AB3"></path>
        <path d="M71.68,137.102222 C91.8186667,161.962667 127.431111,161.564444 150.186667,140.515556 L133.12,119.466667 C124.586667,129.137778 106.951111,130.844444 98.9866667,125.155556" fill="#FF6B00"></path>
        <polygon fill="#DA3AB3" points="200.817778 59.1644444 200.817778 58.0266667 174.08 58.0266667 174.08 92.16"></polygon>
        <path d="M200.817778,59.1644444 L198.706298,62.2387044 L199.404653,91.1771571 L200.817778,92.16 C203.491556,84.5368889 211.285333,82.432 216.746667,87.6088889 L236.088889,68.2666667 C225.393778,58.1404444 212.252444,55.9786667 200.817778,59.1644444 Z" fill="#00B3E3"></path>
        <path d="M200.817778,59.1644444 C186.766222,63.0897778 175.331556,75.3777778 174.08,92.16 L174.08,155.875556 L200.817778,155.875556 L200.817778,59.1644444 Z" fill="#00299F"></path>
        <path d="M315.733333,58.0266667 L273.066667,58.0266667 C234.837333,64.9102222 238.535111,119.239111 277.048889,120.035556 L293.546667,120.035556 C299.349333,120.035556 299.349333,129.137778 293.546667,129.137778 L254.862222,129.137778 L254.862222,155.875556 L293.546667,155.875556 C314.254222,153.827556 324.039111,140.686222 324.266667,125.724444 C324.494222,109.397333 312.718222,93.2977778 292.977778,93.2977778 L275.911111,93.2977778 C272.156444,91.9893333 272.156444,86.2435556 275.911111,84.7644444 L315.733333,84.7644444 L315.733333,58.0266667 Z" fill="#FF4338"></path>
        <path d="M409.031111,111.502222 L436.337778,100.124444 C432.64,91.3635556 428.942222,83.0577778 425.528889,78.5066667 L398.791111,89.8844444 L409.031111,111.502222 Z" fill="#DA1800"></path>
        <path d="M374.897778,125.155556 L365.226667,103.537778 L337.351111,114.915556 C339.456,123.619556 343.04,131.527111 347.591111,137.102222 L374.897778,125.155556 Z" fill="#DA1800"></path>
        <path d="M398.791111,89.8844444 L425.528889,78.5066667 C396.515556,37.5466667 330.524444,61.44 337.351111,114.915556 L365.226667,103.537778 C367.843556,86.0728889 386.275556,79.3031111 398.791111,89.8844444 Z" fill="#FF6B00"></path>
        <path d="M365.226667,103.537778 C364.373333,113.834667 367.672889,120.32 374.897778,125.155556 L409.031111,111.502222 C407.267556,103.082667 404.536889,95.8577778 398.791111,89.8844444 L365.226667,103.537778 Z" fill="#DA3AB3"></path>
        <path d="M347.591111,137.102222 C367.729778,161.962667 403.342222,161.564444 426.097778,140.515556 L409.031111,119.466667 C400.497778,129.137778 382.862222,130.844444 374.897778,125.155556" fill="#FF6B00"></path>
        <polygon fill="#DA3AB3" points="476.728889 59.1644444 476.728889 58.0266667 449.991111 58.0266667 449.991111 92.16"></polygon>
        <path d="M476.728889,59.1644444 L476.024353,60.500593 L476.024353,91.252704 L476.728889,92.16 C479.402667,84.5368889 487.196444,82.432 492.657778,87.6088889 L512,68.2666667 C501.304889,58.1404444 488.163556,55.9786667 476.728889,59.1644444 Z" fill="#00B3E3"></path>
        <path d="M476.728889,59.1644444 C462.677333,63.0897778 451.242667,75.3777778 449.991111,92.16 L449.991111,155.875556 L476.728889,155.875556 L476.728889,59.1644444 Z" fill="#00299F"></path>
    </g>
</svg>

<svg width="512" height="157" xmlns="http://www.w3.org/2000/svg" preserveAspectRatio="xMidYMid">
	<path fill="#FF6B00" d="M7.964 0h26.738v58.027H7.964z"/>
	<path d="M7.964 84.764v43.805c0 19.911 15.36 27.307 26.738 27.307h13.085v-27.307H34.702V84.764H7.964Z" fill="#FF6B00"/>
	<path fill="#05CE7C" d="M0 58.027h10.362v26.737H0z"/>
	<path fill="#05CE7C" d="M33.117 58.027h14.67v26.737h-14.67z"/>
	<path fill="#055600" d="M7.964 58.027h26.738v26.738H7.964z"/>
	<path d="m133.12 111.502 27.307-11.378c-3.698-8.76-7.396-17.066-10.81-21.617L122.88 89.884l10.24 21.618Z" fill="#DA1800"/>
	<path d="m98.987 125.156-9.671-21.618-27.876 11.378c2.105 8.704 5.689 16.611 10.24 22.186l27.307-11.946Z" fill="#DA1800"/>
	<path d="m122.88 89.884 26.738-11.377c-29.014-40.96-95.005-17.067-88.178 36.409l27.876-11.378c2.616-17.465 21.048-24.235 33.564-13.654Z" fill="#FF6B00"/>
	<path d="M89.316 103.538c-.37 4.46.04 8.203 1.209 11.409 1.531 4.195 4.366 7.467 8.462 10.209l34.133-13.654c-1.764-8.42-4.494-15.644-10.24-21.618l-33.564 13.654Z" fill="#DA3AB3"/>
	<path d="M71.68 137.102c20.139 24.86 55.751 24.462 78.507 3.414l-17.067-21.05c-8.533 9.672-26.169 11.378-34.133 5.69" fill="#FF6B00"/>
	<path fill="#DA3AB3" d="M200.818 59.164v-1.137H174.08V92.16z"/>
	<path d="m200.818 59.164-2.112 3.075.699 28.938 1.413.983c2.674-7.623 10.467-9.728 15.929-4.551l19.342-19.342c-10.695-10.127-23.837-12.288-35.271-9.103Z" fill="#00B3E3"/>
	<path d="M200.818 59.164c-14.052 3.926-25.486 16.214-26.738 32.996v63.716h26.738V59.164Z" fill="#00299F"/>
	<path d="M315.733 58.027h-42.666c-38.23 6.883-34.532 61.212 3.982 62.009h16.498c5.802 0 5.802 9.102 0 9.102h-38.685v26.738h38.685c20.707-2.048 30.492-15.19 30.72-30.152.227-16.327-11.549-32.426-31.29-32.426h-17.066c-3.755-1.309-3.755-7.054 0-8.534h39.822V58.027Z" fill="#FF4338"/>
	<path d="m409.031 111.502 27.307-11.378c-3.698-8.76-7.396-17.066-10.81-21.617l-26.737 11.377 10.24 21.618Z" fill="#DA1800"/>
	<path d="m374.898 125.156-9.671-21.618-27.876 11.378c2.105 8.704 5.689 16.611 10.24 22.186l27.307-11.946Z" fill="#DA1800"/>
	<path d="m398.791 89.884 26.738-11.377c-29.013-40.96-95.005-17.067-88.178 36.409l27.876-11.378c2.617-17.465 21.049-24.235 33.564-13.654Z" fill="#FF6B00"/>
	<path d="M365.227 103.538c-.854 10.297 2.446 16.782 9.67 21.618l34.134-13.654c-1.763-8.42-4.494-15.644-10.24-21.618l-33.564 13.654Z" fill="#DA3AB3"/>
	<path d="M347.591 137.102c20.139 24.86 55.751 24.462 78.507 3.414l-17.067-21.05c-8.533 9.672-26.169 11.378-34.133 5.69" fill="#FF6B00"/>
	<path fill="#DA3AB3" d="M476.729 59.164v-1.137H449.99V92.16z"/>
	<path d="m476.729 59.164-.705 1.337v30.752l.705.907c2.674-7.623 10.467-9.728 15.929-4.551L512 68.267c-10.695-10.127-23.836-12.288-35.271-9.103Z" fill="#00B3E3"/>
	<path d="M476.729 59.164c-14.052 3.926-25.486 16.214-26.738 32.996v63.716h26.738V59.164Z" fill="#00299F"/>
</svg>
